source/images/icons/shortcut-rutube.svg

<svg width="16" height="16" viewBox="0 0 16 16" xmlns="http://www.w3.org/2000/svg">
<path d="M14.5266 3.31077C14.7201 3.31077 14.9117 3.26795 15.0905 3.18476C15.2692 3.10157 15.4316 2.97964 15.5685 2.82592C15.7053 2.6722 15.8138 2.48971 15.8878 2.28887C15.9619 2.08803 16 1.87277 16 1.65538C16 1.438 15.9619 1.22274 15.8878 1.0219C15.8138 0.821056 15.7053 0.638568 15.5685 0.484851C15.4316 0.331134 15.2692 0.2092 15.0905 0.126009C14.9117 0.042818 14.7201 -4.58111e-09 14.5266 0C14.1359 9.25198e-09 13.7611 0.174406 13.4848 0.484851C13.2085 0.795296 13.0533 1.21635 13.0533 1.65538C13.0533 2.09442 13.2085 2.51547 13.4848 2.82592C13.7611 3.13636 14.1359 3.31077 14.5266 3.31077Z"/>
<path fill-rule="evenodd" clip-rule="evenodd" d="M2.86458 15.9766H0V3.12738H10.8854C11.6233 3.12738 12.3311 3.45675 12.8529 4.04301C13.3747 4.62928 13.6678 5.42443 13.6678 6.25354V8.82708C13.668 9.56404 13.4221 10.2743 12.9787 10.8174C12.5353 11.3604 11.9267 11.6968 11.2732 11.76L14.0359 16H10.8438L8.30234 11.7698H2.86348V15.9766H2.86458ZM2.84376 5.95446V8.94277H10.0463C10.143 8.94277 10.2389 8.92134 10.3282 8.87969C10.4176 8.83805 10.4988 8.77702 10.5672 8.70009C10.6356 8.62316 10.6898 8.53184 10.7267 8.43135C10.7636 8.33086 10.7826 8.22318 10.7824 8.11446V6.78154C10.7824 6.56219 10.7049 6.35181 10.5668 6.19671C10.4288 6.0416 10.2415 5.95446 10.0463 5.95446H2.84376Z"/>
</svg>

<svg viewBox="0 0 16 16" xmlns="http://www.w3.org/2000/svg"><path d="M14.53 3.31a1.48 1.48 0 0 0 1.04-.48 1.83 1.83 0 0 0 0-2.34c-.14-.16-.3-.28-.48-.36a1.33 1.33 0 0 0-.56-.13c-.4 0-.77.17-1.05.48a1.84 1.84 0 0 0 0 2.35c.28.3.66.48 1.05.48Z"/><path fill-rule="evenodd" clip-rule="evenodd" d="M2.86 15.98h-2.86v-12.85h10.89c.73 0 1.44.33 1.96.91.52.59.82 1.38.82 2.21v2.58c0 .73-.25 1.44-.7 1.99-.43.54-1.04.88-1.7.94l2.77 4.24h-3.2l-2.54-4.23h-5.44v4.2Zm-.02-10.03v3h7.2a.74.74 0 0 0 .52-.24.92.92 0 0 0 .22-.59v-1.34a.88.88 0 0 0-.21-.58.7.7 0 0 0-.52-.25h-7.2Z"/></svg>
